packages/icons/svgs/duotone/Source=bell.svg

<svg width="24" height="24" viewBox="0 0 24 24" fill="none" xmlns="http://www.w3.org/2000/svg">
<path fill-rule="evenodd" clip-rule="evenodd" d="M6.34315 2.34315C7.84344 0.842855 9.87827 0 12 0C14.1217 0 16.1566 0.842855 17.6569 2.34315C19.1571 3.84344 20 5.87827 20 8V11C20 12.2852 20.5571 13.0783 21.2498 13.8634C21.3299 13.9542 21.418 14.0511 21.51 14.1524C21.7886 14.4591 22.1037 14.806 22.345 15.1438C22.6921 15.6297 23 16.2382 23 17C23 17.8482 22.506 18.508 21.9118 18.9733C21.3174 19.4387 20.5116 19.8056 19.583 20.0928C17.7158 20.6705 15.1069 21 12 21C8.89309 21 6.28423 20.6705 4.41697 20.0928C3.48843 19.8056 2.68256 19.4387 2.08816 18.9733C1.49396 18.508 1 17.8482 1 17C1 16.2382 1.30795 15.6297 1.65502 15.1438C1.8963 14.806 2.21136 14.4591 2.48998 14.1524C2.58201 14.0511 2.67006 13.9542 2.75016 13.8634C3.44291 13.0783 4 12.2852 4 11V8C4 5.87827 4.84285 3.84344 6.34315 2.34315ZM12 2C10.4087 2 8.88258 2.63214 7.75736 3.75736C6.63214 4.88258 6 6.4087 6 8V11C6 13.0148 5.05709 14.2717 4.24984 15.1866C4.11995 15.3338 4.00197 15.4637 3.89388 15.5828C3.64631 15.8554 3.4506 16.0709 3.28248 16.3062C3.06705 16.6078 3 16.8118 3 17L3 17.0001C2.9999 17.0047 2.99696 17.1447 3.32121 17.3986C3.64869 17.655 4.19907 17.9319 5.00803 18.1822C6.61577 18.6795 9.00691 19 12 19C14.9931 19 17.3842 18.6795 18.992 18.1822C19.8009 17.9319 20.3513 17.655 20.6788 17.3986C21.003 17.1447 21.0001 17.0047 21 17.0001L21 17C21 16.8118 20.9329 16.6078 20.7175 16.3062C20.5494 16.0709 20.3537 15.8554 20.1061 15.5828C19.998 15.4637 19.88 15.3338 19.7502 15.1866C18.9429 14.2717 18 13.0148 18 11V8C18 6.4087 17.3679 4.88258 16.2426 3.75736C15.1174 2.63214 13.5913 2 12 2Z" fill="black" style="fill:black;fill-opacity:1;"/>
<path opacity="0.55" d="M12 22C10.989 22 10.039 21.966 9.14499 21.9C9.33558 22.508 9.71528 23.0392 10.2288 23.4164C10.7423 23.7936 11.3628 23.997 12 23.997C12.6371 23.997 13.2577 23.7936 13.7712 23.4164C14.2847 23.0392 14.6644 22.508 14.855 21.9C13.961 21.966 13.011 22 12 22Z" fill="black" style="fill:black;fill-opacity:1;"/>
</svg>

<svg xmlns="http://www.w3.org/2000/svg" width="24" height="24" viewBox="0 0 24 24"><path fill-rule="evenodd" d="M6.343 2.343A8 8 0 0 1 20 8v3c0 1.285.557 2.078 1.25 2.863q.121.137.26.29c.279.306.594.653.835.99.347.487.655 1.095.655 1.857 0 .848-.494 1.508-1.088 1.973s-1.4.833-2.329 1.12C17.716 20.67 15.107 21 12 21s-5.716-.33-7.583-.907c-.929-.287-1.734-.654-2.329-1.12C1.494 18.508 1 17.848 1 17c0-.762.308-1.37.655-1.856.241-.338.556-.685.835-.992q.139-.151.26-.289C3.443 13.078 4 12.285 4 11V8a8 8 0 0 1 2.343-5.657M12 2a6 6 0 0 0-6 6v3c0 2.015-.943 3.272-1.75 4.187q-.194.219-.356.396a8 8 0 0 0-.612.723C3.067 16.608 3 16.812 3 17c0 .005-.003.145.321.399.328.256.878.533 1.687.783C6.616 18.68 9.007 19 12 19s5.384-.32 6.992-.818c.809-.25 1.36-.527 1.687-.783.324-.254.321-.394.321-.399 0-.188-.067-.392-.282-.694a8 8 0 0 0-.612-.723l-.356-.396C18.943 14.272 18 13.015 18 11V8a6 6 0 0 0-6-6" clip-rule="evenodd"/><path d="M12 22a39 39 0 0 1-2.855-.1 2.992 2.992 0 0 0 5.71 0q-1.34.1-2.855.1" opacity=".55"/></svg>
